X:1
T:Title
%%score { 1 | 2 } 3
L:1/8
M:3/4
K:C
V:1 treble nm="Piano" snm="Pno."
V:2 bass 
V:3 bass nm="Violoncello" snm="Vc."
V:1
!f! e2 c2 A2 | f6 | d2 B2 G2 | e6 | A4 A2 | ^G2 E2 e2 | dc B4 | A6 :: c2 d2 e2 | A6 | B2 c2 d2 | %11
 G6 | A2 B2 c2 | B2 G2 g2 | fe d4 | c6 | e2 c2 A2 | f6 | d2 B2 G2 | e6 | A4 A2 | ^G2 E2 e2 | %22
 dc B4 | A6 :| z6 | z6 | z6 | z6 | z6 | z6 | z6 | z6 | z6 | z6 | z6 | z6 | z6 | z6 | z6 | z6 | z6 | %41
 z6 | z6 |] %43
V:2
!f! [A,C]6 | D,2 E,2 F,2 | G,6 | C,2 D,2 E,2 | F,2 C,2 D,2 | E,4 C,2 | D,2 E,2 E,2 | A,6 :: %8
 A,4 G,2 | F,2 E,2 D,2 | G,4 F,2 | E,2 D,2 C,2 | F,2 G,2 A,2 | G,2 F,2 E,2 | F,2 G,2 G,,2 | %15
 C,4 C,2 | A,,6 | D,2 E,2 F,2 | G,6 | C,2 D,2 E,2 | F,2 C,2 D,2 | E,4 C,2 | D,2 E,2 E,,2 | A,,6 :| %24
 z6 | z6 | z6 | z6 | z6 | z6 | z6 | z6 | z6 | z6 | z6 | z6 | z6 | z6 | z6 | z6 | z6 | z6 | z6 |] %43
V:3
!p! A,6 | D,2 E,2 F,2 | G,6 | C,2 D,2 E,2 | F,2 C,2 D,2 | E,4 C,2 | D,2 E,2 E,2 | A,6 :: A,4 G,2 | %9
 F,2 E,2 D,2 | G,4 F,2 | E,2 D,2 C,2 | F,2 G,2 A,2 | G,2 F,2 E,2 | F,2 G,2 G,,2 | C,4 C,2 | A,,6 | %17
 D,2 E,2 F,2 | G,6 | C,2 D,2 E,2 | F,2 C,2 D,2 | E,4 C,2 | D,2 E,2 E,,2 | A,,6 :| z6 | z6 | z6 | %27
 z6 | z6 | z6 | z6 | z6 | z6 | z6 | z6 | z6 | z6 | z6 | z6 | z6 | z6 | z6 | z6 |] %43

